X:78
T:Shady Grove
C:Traditional
S:https://JamBuddy.live
R:Ballad
M:2/4
K:Ador
A|:"Am" A2AA A2AA|"G"B2A2G4|"Am"A2AA c2d2|e4e4|
|"Am"g3g e2e2|"G"d2BA G4|"Am"A2B2 "G" d2B2 |"Am"A4A4:|
|:"G"BABA "Em"G3A|"G"B2BA "Em"G3G|"Am"A2A2"G"B2d2|"Am"e4e4|
|"C"e2ef g2e2|"G"dB "Em"A2G3 A|"G"B2d2"Em"edB2|"Am"A4A4:|


